X:104
T: Frau von Weissenburg
N: Q0030A
O: Mitteleuropa, Deutschland
N: Grundton in der zweigestrichenen Oktave; Taktart ergaenzt
R: Ballade, Ehebruch, Mord, Moral
M: 6/4
L: 1/8
K: C
C2 | C4E2E4C2 | E4FGF4
ED | C2C2C2G4F2 | E6z4
FG | F4E2C4E2 | D4D2G,4
E2 | F4EDC4A,B, | C6z4

